images/icon/ok-footer.svg

<svg width="25" height="24" viewBox="0 0 25 24" fill="none" xmlns="http://www.w3.org/2000/svg">
<path fill-rule="evenodd" clip-rule="evenodd" d="M12.4867 24C19.1141 24 24.4867 18.6274 24.4867 12C24.4867 5.37258 19.1141 0 12.4867 0C5.85927 0 0.486694 5.37258 0.486694 12C0.486694 18.6274 5.85927 24 12.4867 24ZM8.95233 8.74232C8.95233 10.6338 10.5522 12.2323 12.4771 12.2323L12.4887 12.233C13.4175 12.2357 14.3093 11.8696 14.9682 11.215C15.6271 10.5605 15.9992 9.67107 16.0026 8.74232C16.0026 6.78471 14.4688 5.18619 12.4778 5.18619C10.5522 5.18619 8.95233 6.78539 8.95233 8.74232ZM11.0421 8.743C11.0421 7.9267 11.6622 7.24191 12.4771 7.24191C13.3261 7.24191 13.9142 7.92602 13.9135 8.743C13.9135 9.55793 13.3261 10.178 12.4778 10.178C11.6622 10.178 11.0421 9.55793 11.0421 8.743ZM15.8724 17.0613L13.8814 15.1371C14.6323 14.9088 15.3505 14.6151 15.9699 14.2233C16.4271 13.9617 16.5586 13.3103 16.2642 12.8204C15.9706 12.3312 15.3512 12.201 14.8286 12.5274C14.1209 12.9593 13.3079 13.1877 12.4788 13.1877C11.6498 13.1877 10.8368 12.9593 10.1291 12.5274C9.60646 12.201 9.01911 12.3312 8.69273 12.8204C8.43176 13.3103 8.5292 13.9624 9.01911 14.2233C9.67428 14.6128 10.3754 14.9193 11.1062 15.1357L9.08248 17.0606C8.69068 17.4844 8.69068 18.1045 9.08248 18.4963C9.31142 18.6912 9.57239 18.7893 9.80065 18.7893C10.095 18.7893 10.3567 18.6918 10.5522 18.4963L12.4778 16.5387L14.4688 18.4963C14.7952 18.9194 15.4486 18.9194 15.8724 18.4963C16.2642 18.1045 16.2642 17.4844 15.8724 17.0613Z" fill="#9FB7D3"/>
</svg>

<svg width="25" height="24" fill="none" xmlns="http://www.w3.org/2000/svg"><path fill-rule="evenodd" clip-rule="evenodd" d="M12.487 24c6.627 0 12-5.373 12-12s-5.373-12-12-12c-6.628 0-12 5.373-12 12s5.372 12 12 12zM8.952 8.742c0 1.892 1.6 3.49 3.525 3.49l.012.001a3.503 3.503 0 003.514-3.49c0-1.958-1.534-3.557-3.525-3.557-1.926 0-3.526 1.6-3.526 3.556zm2.09.001c0-.816.62-1.501 1.435-1.501.85 0 1.437.684 1.437 1.501 0 .815-.588 1.435-1.436 1.435-.816 0-1.436-.62-1.436-1.435zm4.83 8.318l-1.99-1.924c.75-.228 1.469-.522 2.088-.914.457-.261.589-.913.294-1.403-.293-.489-.913-.619-1.435-.293a4.51 4.51 0 01-4.7 0c-.523-.326-1.11-.196-1.436.293-.261.49-.164 1.142.326 1.403a9.19 9.19 0 002.087.913L9.082 17.06c-.391.423-.391 1.044 0 1.435.23.195.49.293.719.293.294 0 .556-.097.751-.293l1.926-1.957 1.99 1.957c.327.423.98.423 1.404 0 .392-.391.392-1.012 0-1.435z" fill="#9FB7D3"/></svg>
